X:4313
T:Now the Light Has Gone Away
M:4/4
L:1/4
K:F
"^I""^ii"F3/2 F/2 F F|"^V7""^ii"E "^vim7""^V"F "^V""^V"G2|G G G "^V7""^V"G|"^I""^V"F "^V7""^V"G "^I""^V"A2|A3/2 A/2 A A|"^viio""^IV"G "^vim7""^V"F "^IV""^V"d2|"^viio""^IV"c A c "^I""^IV"B|D "^iim7""^I"E "^V""^I"F2|]

